svg/u3297.svg

<svg viewBox="0 0 128 128" xmlns="http://www.w3.org/2000/svg">
  <g>
    <circle cx="64" cy="64" r="60" fill="#CC3333"/>
    <circle cx="60.1" cy="63.1" r="56.1" fill="#F44336"/>
  </g>
  <g>
    <path d="M97.95,87.2c-1.19-0.43-2.36-0.93-3.5-1.5c-0.22-0.1-0.46-0.17-0.7-0.2 c-0.85-0.02-1.57,0.65-1.6,1.5c-0.3,8-0.7,9.6-2.2,9.6h-4.8c-1.7,0-2-0.5-2-3.2V65.6c0.02-0.87,0.73-1.58,1.6-1.6h7.7 c0.85,0.02,1.57-0.65,1.6-1.5V30.3c-0.07-0.84-0.76-1.49-1.6-1.5l-39.2,0.1c-0.81-0.02-1.48,0.63-1.5,1.44c0,0.02,0,0.04,0,0.06 v32.3c0.02,0.82,0.68,1.48,1.5,1.5h5.5c0.83,0,1.5,0.67,1.5,1.5c0,0.03,0,0.07,0,0.1c-0.9,14.6-3.4,24.9-15.8,31.3 c-0.75,0.3-1.12,1.16-0.82,1.91c0.07,0.18,0.18,0.35,0.32,0.49c1.14,1.15,2.14,2.43,3,3.8c0.31,0.42,0.78,0.68,1.3,0.7 c0.24-0.02,0.48-0.09,0.7-0.2c14.9-7.6,18.2-20.4,19.2-38.2c0.02-0.82,0.68-1.48,1.5-1.5h4c0.87,0.02,1.58,0.73,1.6,1.6v27.9 c0,7.5,1.6,9.9,8.5,9.9h6.9c5.8,0,7.6-3.3,8.3-14.7C99.07,88.09,98.64,87.41,97.95,87.2z M60.85,56.7c-0.82-0.02-1.48-0.68-1.5-1.5 V37.8c0.02-0.82,0.68-1.48,1.5-1.5h23.5c0.85-0.02,1.57,0.65,1.6,1.5v17.4c-0.07,0.84-0.76,1.49-1.6,1.5H60.85z" fill="#FAFAFA"/>
    <path d="M24.35,29.7c4.5-7.1,14.1-13,24.1-14.8 c2.5-0.4,5-0.6,7.1,0.2c1.6,0.6,2.9,2.1,2,3.8c-0.7,1.4-2.6,2-4.1,2.5c-9.38,3.1-17.47,9.21-23,17.4c-2,3-5,11.3-8.7,9.2 C17.85,45.7,18.65,38.5,24.35,29.7z" opacity="0.65" fill="#FF8A80" enable-background="new "/>
    <path d="M46.45,76.9c0.47-0.01,0.91-0.23,1.2-0.6l3-4c0.47-0.6,0.43-1.45-0.1-2c-2.3-2.4-7.1-7.3-10.1-10.2 c-0.51-0.55-0.59-1.36-0.2-2c3.43-5.09,6.25-10.56,8.4-16.3c0.21-0.67-0.03-1.39-0.6-1.8l-2.7-1.8c-0.26-0.19-0.58-0.29-0.9-0.3h-6 v-7.5c0.02-0.85-0.65-1.57-1.5-1.6h-4.7c-0.84,0.07-1.49,0.76-1.5,1.6v7.7h-10.3c-0.82,0.02-1.48,0.68-1.5,1.5v4.3 c-0.02,0.81,0.63,1.48,1.44,1.5c0.02,0,0.04,0,0.06,0h16.1c0.86-0.01,1.57,0.67,1.59,1.53c0,0.27-0.06,0.53-0.19,0.77 c-4.8,8.85-11.49,16.53-19.6,22.5c-0.64,0.45-0.85,1.3-0.5,2c0.8,1.66,1.5,3.36,2.1,5.1c0.3,0.86,1.23,1.31,2.09,1.01 c0.15-0.05,0.29-0.12,0.41-0.21c2.03-1.62,3.97-3.36,5.8-5.2c0.26-0.34,0.67-0.53,1.1-0.5c0.82,0.02,1.48,0.68,1.5,1.5v28.7 c-0.02,0.85,0.65,1.57,1.5,1.6h4.7c0.84-0.07,1.49-0.76,1.5-1.6V72.4c-0.01-0.87,0.68-1.58,1.55-1.59 c0.49-0.01,0.95,0.21,1.25,0.59c1.4,1.7,2.7,3.4,3.8,4.9C45.47,76.69,45.95,76.91,46.45,76.9z" fill="#FAFAFA"/>
    <path d="M24.35,29.7c4.5-7.1,14.1-13,24.1-14.8 c2.5-0.4,5-0.6,7.1,0.2c1.6,0.6,2.9,2.1,2,3.8c-0.7,1.4-2.6,2-4.1,2.5c-9.38,3.1-17.47,9.21-23,17.4c-2,3-5,11.3-8.7,9.2 C17.85,45.7,18.65,38.5,24.35,29.7z" opacity="0.3" fill="#FF8A80" enable-background="new "/>
  </g>
</svg>

<svg viewBox="0 0 128 128" xmlns="http://www.w3.org/2000/svg">
  <defs/>
  <path d="M124,64 A60 60 0 1 1 4,64 A60 60 0 1 1 124,64 Z" fill="#CC3333"/>
  <path d="M116.2,63.1 A56.1 56.1 0 1 1 4,63.1 A56.1 56.1 0 1 1 116.2,63.1 Z" fill="#F44336"/>
  <path d="M97.95,87.2 C96.76,86.77 95.59,86.27 94.45,85.7 C94.23,85.6 93.99,85.53 93.75,85.5 C92.9,85.48 92.18,86.15 92.15,87 C91.85,95 91.45,96.6 89.95,96.6 L85.15,96.6 C83.45,96.6 83.15,96.1 83.15,93.4 L83.15,65.6 C83.17,64.73 83.88,64.02 84.75,64 L92.45,64 C93.3,64.02 94.02,63.35 94.05,62.5 L94.05,30.3 C93.98,29.46 93.29,28.81 92.45,28.8 L53.25,28.9 C52.44,28.88 51.77,29.53 51.75,30.34 C51.75,30.36 51.75,30.38 51.75,30.4 L51.75,62.7 C51.77,63.52 52.43,64.18 53.25,64.2 L58.75,64.2 C59.58,64.2 60.25,64.87 60.25,65.7 C60.25,65.73 60.25,65.77 60.25,65.8 C59.35,80.4 56.85,90.7 44.45,97.1 C43.7,97.4 43.33,98.26 43.63,99.01 C43.7,99.19 43.81,99.36 43.95,99.5 C45.09,100.65 46.09,101.93 46.95,103.3 C47.26,103.72 47.73,103.98 48.25,104 C48.49,103.98 48.73,103.91 48.95,103.8 C63.85,96.2 67.15,83.4 68.15,65.6 C68.17,64.78 68.83,64.12 69.65,64.1 L73.65,64.1 C74.52,64.12 75.23,64.83 75.25,65.7 L75.25,93.6 C75.25,101.1 76.85,103.5 83.75,103.5 L90.65,103.5 C96.45,103.5 98.25,100.2 98.95,88.8 C99.07,88.09 98.64,87.41 97.95,87.2 Z M60.85,56.7 C60.03,56.68 59.37,56.02 59.35,55.2 L59.35,37.8 C59.37,36.98 60.03,36.32 60.85,36.3 L84.35,36.3 C85.2,36.28 85.92,36.95 85.95,37.8 L85.95,55.2 C85.88,56.04 85.19,56.69 84.35,56.7 L60.85,56.7 Z" fill="#FAFAFA"/>
  <path d="M24.35,29.7 C28.85,22.6 38.45,16.7 48.45,14.9 C50.95,14.5 53.45,14.3 55.55,15.1 C57.15,15.7 58.45,17.2 57.55,18.9 C56.85,20.3 54.95,20.9 53.45,21.4 C44.07,24.5 35.98,30.61 30.45,38.8 C28.45,41.8 25.45,50.1 21.75,48 C17.85,45.7 18.65,38.5 24.35,29.7 Z" fill="#FF8A80" opacity="0.65"/>
  <path d="M46.45,76.9 C46.92,76.89 47.36,76.67 47.65,76.3 L50.65,72.3 C51.12,71.7 51.08,70.85 50.55,70.3 C48.25,67.9 43.45,63 40.45,60.1 C39.94,59.55 39.86,58.74 40.25,58.1 C43.68,53.01 46.5,47.54 48.65,41.8 C48.86,41.13 48.62,40.41 48.05,40 L45.35,38.2 C45.09,38.01 44.77,37.91 44.45,37.9 L38.45,37.9 L38.45,30.4 C38.47,29.55 37.8,28.83 36.95,28.8 L32.25,28.8 C31.41,28.87 30.76,29.56 30.75,30.4 L30.75,38.1 L20.45,38.1 C19.63,38.12 18.97,38.78 18.95,39.6 L18.95,43.9 C18.93,44.71 19.58,45.38 20.39,45.4 C20.41,45.4 20.43,45.4 20.45,45.4 L36.55,45.4 C37.41,45.39 38.12,46.07 38.14,46.93 C38.14,47.2 38.08,47.46 37.95,47.7 C33.15,56.55 26.46,64.23 18.35,70.2 C17.71,70.65 17.5,71.5 17.85,72.2 C18.65,73.86 19.35,75.56 19.95,77.3 C20.25,78.16 21.18,78.61 22.04,78.31 C22.19,78.26 22.33,78.19 22.45,78.1 C24.48,76.48 26.42,74.74 28.25,72.9 C28.51,72.56 28.92,72.37 29.35,72.4 C30.17,72.42 30.83,73.08 30.85,73.9 L30.85,102.6 C30.83,103.45 31.5,104.17 32.35,104.2 L37.05,104.2 C37.89,104.13 38.54,103.44 38.55,102.6 L38.55,72.4 C38.54,71.53 39.23,70.82 40.1,70.81 C40.59,70.8 41.05,71.02 41.35,71.4 C42.75,73.1 44.05,74.8 45.15,76.3 C45.47,76.69 45.95,76.91 46.45,76.9 Z" fill="#FAFAFA"/>
  <path d="M24.35,29.7 C28.85,22.6 38.45,16.7 48.45,14.9 C50.95,14.5 53.45,14.3 55.55,15.1 C57.15,15.7 58.45,17.2 57.55,18.9 C56.85,20.3 54.95,20.9 53.45,21.4 C44.07,24.5 35.98,30.61 30.45,38.8 C28.45,41.8 25.45,50.1 21.75,48 C17.85,45.7 18.65,38.5 24.35,29.7 Z" fill="#FF8A80" opacity="0.3"/>
</svg>
